Sources/FrostedUI/Resources/Icons.xcassets/micOff32.imageset/mic-off-32.svg

<svg width="32" height="32" viewBox="0 0 32 32" fill="none" xmlns="http://www.w3.org/2000/svg" data-fui-icon="true">
  <path
    d="M2.96973 2.96973C3.26262 2.67689 3.7374 2.67685 4.03027 2.96973L29.0303 27.9697C29.3231 28.2626 29.3231 28.7374 29.0303 29.0303C28.7374 29.3231 28.2626 29.3231 27.9697 29.0303L23.6488 24.7093C23.4765 24.5371 23.2058 24.5149 23.0024 24.649C21.3124 25.7636 19.3426 26.4886 17.2195 26.6906C16.9558 26.7156 16.749 26.9335 16.749 27.1984V28.5C16.749 28.9142 16.4132 29.25 15.999 29.25C15.5852 29.2495 15.249 28.9139 15.249 28.5V27.1984C15.249 26.9335 15.0417 26.7156 14.778 26.6905C8.30959 26.0756 3.24902 20.6295 3.24902 14C3.24902 13.5861 3.58521 13.2505 3.99902 13.25C4.41324 13.25 4.74902 13.5858 4.74902 14C4.74902 20.2129 9.78622 25.2495 15.999 25.25C18.1062 25.25 20.077 24.6692 21.7624 23.6604C22.0323 23.4989 22.0678 23.1283 21.8454 22.9059L20.1814 21.242C20.0228 21.0833 19.7786 21.0513 19.5782 21.152C18.5014 21.6933 17.2864 22 15.999 22C11.7194 21.9995 8.22424 18.6386 8.00977 14.4121L7.99902 14V10C7.99902 9.78099 8.00868 9.56413 8.0265 9.34964C8.03908 9.1982 7.98725 9.04779 7.87979 8.94034L2.96973 4.03027C2.67683 3.73738 2.67683 3.26262 2.96973 2.96973ZM27.999 13.25C28.4132 13.25 28.749 13.5858 28.749 14C28.749 17.0287 27.6908 19.8084 25.9266 21.9951C25.7452 22.22 25.41 22.2303 25.2057 22.026L24.8479 21.6682C24.6628 21.4831 24.6528 21.1872 24.8155 20.982C26.3375 19.0636 27.249 16.6391 27.249 14C27.249 13.5861 27.5852 13.2505 27.999 13.25ZM9.49902 14C9.49902 17.5896 12.4096 20.4995 15.999 20.5C16.7535 20.5 17.4777 20.3705 18.1511 20.1334C18.4762 20.019 18.5474 19.608 18.3037 19.3642L10.3526 11.4131C10.0376 11.0981 9.49902 11.3212 9.49902 11.7667V14ZM15.999 2C20.4173 2 23.999 5.58172 23.999 10V14C23.999 15.7091 23.4616 17.2919 22.5483 18.5915C22.3777 18.8343 22.0313 18.8516 21.8215 18.6418L21.4574 18.2777C21.2796 18.0999 21.2633 17.8189 21.4033 17.6099C22.0948 16.5773 22.499 15.3361 22.499 14V10C22.499 6.41015 19.5889 3.5 15.999 3.5C13.723 3.5003 11.72 4.67045 10.5589 6.44184C10.3731 6.72534 9.96865 6.78896 9.72895 6.54926L9.38473 6.20504C9.22327 6.04358 9.19037 5.79226 9.31609 5.60164C10.7469 3.43213 13.2059 2.00029 15.999 2Z"
    fill="currentColor"
  />
</svg>

<svg xmlns="http://www.w3.org/2000/svg" width="32" height="32" fill="none" data-fui-icon="true" viewBox="0 0 32 32"><path fill="currentColor" d="M2.97 2.97a.75.75 0 0 1 1.06 0l25 25a.75.75 0 0 1-1.06 1.06l-4.321-4.32a.514.514 0 0 0-.647-.061 12.66 12.66 0 0 1-5.782 2.042.515.515 0 0 0-.471.507V28.5a.75.75 0 0 1-1.5 0v-1.302a.516.516 0 0 0-.471-.508C8.31 26.077 3.249 20.63 3.249 14a.75.75 0 0 1 1.5 0c0 6.213 5.037 11.25 11.25 11.25 2.107 0 4.078-.58 5.763-1.59a.48.48 0 0 0 .083-.754l-1.664-1.664a.52.52 0 0 0-.603-.09A7.95 7.95 0 0 1 16 22a8 8 0 0 1-7.99-7.588L8 14v-4q0-.329.028-.65a.52.52 0 0 0-.147-.41L2.97 4.03a.75.75 0 0 1 0-1.06m25.029 10.28a.75.75 0 0 1 .75.75c0 3.029-1.058 5.808-2.822 7.995a.484.484 0 0 1-.721.031l-.358-.358a.517.517 0 0 1-.032-.686A11.2 11.2 0 0 0 27.249 14a.75.75 0 0 1 .75-.75m-18.5.75a6.5 6.5 0 0 0 8.652 6.133c.325-.114.396-.525.153-.769l-7.951-7.95a.5.5 0 0 0-.854.353zm6.5-12a8 8 0 0 1 8 8v4c0 1.71-.537 3.292-1.45 4.592a.475.475 0 0 1-.727.05l-.365-.364a.53.53 0 0 1-.054-.668A6.47 6.47 0 0 0 22.5 14v-4a6.5 6.5 0 0 0-11.94-3.558c-.186.283-.59.347-.83.107l-.344-.344a.48.48 0 0 1-.069-.603A8 8 0 0 1 16 2"/></svg>
